fa/svgs/regular/pen-to-square.svg

<svg xmlns="http://www.w3.org/2000/svg" viewBox="0 0 512 512"><!--! Font Awesome Free 6.1.1 by @fontawesome - https://fontawesome.com License - https://fontawesome.com/license/free (Icons: CC BY 4.0, Fonts: SIL OFL 1.1, Code: MIT License) Copyright 2022 Fonticons, Inc.--><path d="M373.1 24.97c28.1-28.117 73.7-28.117 101.8 0L487 37.09c28.1 28.12 28.1 73.71 0 101.81L289.8 336.2c-8.7 8.6-19.4 14.9-31.2 18.3l-100 28.6c-8.4 2.4-17.4 0-23.6-7-6.1-5.3-8.5-14.3-6.1-22.7l28.6-100c3.4-11.8 9.7-22.5 18.3-31.2L373.1 24.97zm67 33.94c-8.5-9.37-23.7-9.37-33.1 0L377.9 88l46.1 46.1 29.1-30c9.4-8.5 9.4-23.7 0-33.07l-13-12.12zM203.7 266.6l-16.8 58.5 58.5-16.8c4-1.1 7.5-3.2 10.4-6.1L390.1 168 344 121.9 209.8 256.2c-2.9 2.9-5 6.4-6.1 10.4zM200 64c13.3 0 24 10.75 24 24 0 13.3-10.7 24-24 24H88c-22.09 0-40 17.9-40 40v272c0 22.1 17.91 40 40 40h272c22.1 0 40-17.9 40-40V312c0-13.3 10.7-24 24-24s24 10.7 24 24v112c0 48.6-39.4 88-88 88H88c-48.6 0-88-39.4-88-88V152c0-48.6 39.4-88 88-88h112z"/></svg>

<svg xmlns="http://www.w3.org/2000/svg" viewBox="0 0 512 512"><!--! Font Awesome Free 6.2.1 by @fontawesome - https://fontawesome.com License - https://fontawesome.com/license/free (Icons: CC BY 4.0, Fonts: SIL OFL 1.1, Code: MIT License) Copyright 2022 Fonticons, Inc. --><path d="M373.1 24.97C401.2-3.147 446.8-3.147 474.9 24.97L487 37.09C515.1 65.21 515.1 110.8 487 138.9L289.8 336.2C281.1 344.8 270.4 351.1 258.6 354.5L158.6 383.1C150.2 385.5 141.2 383.1 135 376.1C128.9 370.8 126.5 361.8 128.9 353.4L157.5 253.4C160.9 241.6 167.2 230.9 175.8 222.2L373.1 24.97zM440.1 58.91C431.6 49.54 416.4 49.54 407 58.91L377.9 88L424 134.1L453.1 104.1C462.5 95.6 462.5 80.4 453.1 71.03L440.1 58.91zM203.7 266.6L186.9 325.1L245.4 308.3C249.4 307.2 252.9 305.1 255.8 302.2L390.1 168L344 121.9L209.8 256.2C206.9 259.1 204.8 262.6 203.7 266.6zM200 64C213.3 64 224 74.75 224 88C224 101.3 213.3 112 200 112H88C65.91 112 48 129.9 48 152V424C48 446.1 65.91 464 88 464H360C382.1 464 400 446.1 400 424V312C400 298.7 410.7 288 424 288C437.3 288 448 298.7 448 312V424C448 472.6 408.6 512 360 512H88C39.4 512 0 472.6 0 424V152C0 103.4 39.4 64 88 64H200z"/></svg>
